assets/icons/carriage/ROLLSTUHLTOILETTE.svg

<svg width="34" height="34" viewBox="0 0 34 34" fill="none" xmlns="http://www.w3.org/2000/svg">
<g clip-path="url(#clip0_186_9)">
<rect width="34" height="34" rx="17" fill="#414141"/>
<path d="M11.1698 16.4403C11.026 16.2927 10.825 16.2148 10.6196 16.226L8.1338 16.3644L9.5018 14.8064C9.69668 14.5844 9.75236 14.2886 9.67702 14.0242C9.63726 13.843 9.52755 13.6782 9.35901 13.5729C9.35384 13.5692 6.08904 11.6726 6.08904 11.6726C5.82244 11.5178 5.48651 11.5519 5.25645 11.7571L3.66164 13.1797C3.36781 13.4418 3.34208 13.8924 3.60418 14.1863C3.8663 14.4801 4.31698 14.5059 4.6108 14.2437L5.81988 13.1652L6.81943 13.7456L5.05508 15.755C4.32346 15.8744 3.66519 16.2115 3.14844 16.6976L4.0698 17.6189C4.4863 17.2402 5.03932 17.0091 5.64531 17.0091C6.93787 17.0091 7.98946 18.0607 7.98946 19.3533C7.98946 19.9592 7.7583 20.5122 7.37963 20.9287L8.30093 21.8501C8.91468 21.1976 9.29135 20.3197 9.29135 19.3533C9.29135 18.7774 9.15767 18.2329 8.91998 17.7487L9.88218 17.6951L9.64811 20.5663C9.61611 20.9587 9.90836 21.3027 10.3008 21.3348C10.3205 21.3364 10.3401 21.3371 10.3595 21.3371C10.727 21.3371 11.0389 21.0548 11.0693 20.6821L11.3697 16.9958C11.3865 16.7904 11.3136 16.5878 11.1698 16.4403Z" fill="white"/>
<path d="M9.84966 13.3868C10.5087 13.3868 11.043 12.8525 11.043 12.1934C11.043 11.5343 10.5087 11 9.84966 11C9.19051 11 8.65625 11.5343 8.65625 12.1934C8.65625 12.8525 9.19049 13.3868 9.84966 13.3868Z" fill="white"/>
<path d="M5.64607 21.6981C4.3535 21.6981 3.30189 20.6465 3.30189 19.3539C3.30189 18.8668 3.45136 18.414 3.70667 18.0387L2.77536 17.1074C2.2901 17.7267 2 18.5062 2 19.3539C2 21.3676 3.63238 23 5.64607 23C6.49379 23 7.27326 22.7099 7.8925 22.2246L6.96121 21.2933C6.58595 21.5486 6.13317 21.6981 5.64607 21.6981Z" fill="white"/>
<path d="M15.9609 22L14.5209 11.5H16.0659L16.9359 19.135L18.2259 11.5H19.7859L21.0759 19.135L21.9459 11.5H23.4909L22.0509 22H20.2059L19.0059 14.575L17.8059 22H15.9609ZM28.03 22.18C27.15 22.18 26.4 21.955 25.78 21.505C25.17 21.055 24.7 20.425 24.37 19.615C24.05 18.795 23.89 17.845 23.89 16.765C23.89 15.675 24.05 14.725 24.37 13.915C24.7 13.095 25.175 12.46 25.795 12.01C26.415 11.55 27.16 11.32 28.03 11.32C29.16 11.32 30.06 11.63 30.73 12.25C31.4 12.86 31.79 13.69 31.9 14.74H30.145C30.055 14.19 29.83 13.735 29.47 13.375C29.12 13.005 28.635 12.82 28.015 12.82C27.225 12.82 26.61 13.17 26.17 13.87C25.73 14.57 25.51 15.535 25.51 16.765C25.51 17.985 25.73 18.945 26.17 19.645C26.61 20.335 27.225 20.68 28.015 20.68C28.655 20.68 29.145 20.515 29.485 20.185C29.825 19.845 30.045 19.4 30.145 18.85H31.9C31.74 19.88 31.335 20.695 30.685 21.295C30.035 21.885 29.15 22.18 28.03 22.18Z" fill="white"/>
</g>
<defs>
<clipPath id="clip0_186_9">
<rect width="34" height="34" fill="white"/>
</clipPath>
</defs>
</svg>

<svg xmlns="http://www.w3.org/2000/svg" width="34" height="34" fill="none"><g clip-path="url(#a)"><rect width="34" height="34" fill="#414141" rx="17"/><path fill="#fff" d="M11.17 16.44a.714.714 0 0 0-.55-.214l-2.486.138 1.368-1.558a.836.836 0 0 0 .175-.782.71.71 0 0 0-.318-.451l-3.27-1.9a.713.713 0 0 0-.833.084L3.662 13.18a.713.713 0 1 0 .949 1.064l1.209-1.079 1 .58-1.765 2.01c-.732.12-1.39.457-1.907.943l.922.92c.416-.378.97-.609 1.575-.609a2.347 2.347 0 0 1 2.344 2.344c0 .606-.23 1.16-.61 1.576l.922.921c.614-.652.99-1.53.99-2.497 0-.576-.133-1.12-.371-1.604l.962-.054-.234 2.871a.713.713 0 0 0 1.421.116l.3-3.686a.713.713 0 0 0-.2-.556ZM9.85 13.387a1.193 1.193 0 1 0 0-2.387 1.193 1.193 0 0 0 0 2.387ZM5.646 21.698a2.347 2.347 0 0 1-2.344-2.344c0-.487.15-.94.405-1.315l-.932-.932a3.646 3.646 0 0 0 5.117 5.117l-.93-.93a2.33 2.33 0 0 1-1.316.404ZM15.96 22l-1.44-10.5h1.546l.87 7.635 1.29-7.635h1.56l1.29 7.635.87-7.635h1.545L22.05 22h-1.845l-1.2-7.425-1.2 7.425H15.96Zm12.07.18c-.88 0-1.63-.225-2.25-.675-.61-.45-1.08-1.08-1.41-1.89-.32-.82-.48-1.77-.48-2.85 0-1.09.16-2.04.48-2.85.33-.82.805-1.455 1.425-1.905.62-.46 1.365-.69 2.235-.69 1.13 0 2.03.31 2.7.93.67.61 1.06 1.44 1.17 2.49h-1.755c-.09-.55-.315-1.005-.675-1.365-.35-.37-.835-.555-1.455-.555-.79 0-1.405.35-1.845 1.05-.44.7-.66 1.665-.66 2.895 0 1.22.22 2.18.66 2.88.44.69 1.055 1.035 1.845 1.035.64 0 1.13-.165 1.47-.495.34-.34.56-.785.66-1.335H31.9c-.16 1.03-.565 1.845-1.215 2.445-.65.59-1.535.885-2.655.885Z"/></g><defs><clipPath id="a"><path fill="#fff" d="M0 0h34v34H0z"/></clipPath></defs></svg>
